src/assets/icons/print.svg

<svg xmlns="http://www.w3.org/2000/svg" viewBox="0 0 32 32"><path d="M29.87 8.06H24v-4H8v4H1.93V22.6H9v3.79h13.9V22.6h7zM10 6.06h12v2H10zm.67 18.33v-8.33h10.52v8.33zm17.2-3.79h-5v-4.54H25v-2H7v2h2v4.54H4V10.06h23.87z"/></svg>

<svg xmlns="http://www.w3.org/2000/svg" width="32" height="32" viewBox="0 0 32 32"><g id="print"><path d="M29.87,8.06H24v-4H8v4H1.93V22.6H9v3.79H22.9V22.6h7ZM10,6.06H22v2H10Zm.67,18.33V16.06H21.19v8.33Zm17.2-3.79h-5V16.06H25v-2h-18v2H9V20.6h-5V10.06H27.87Z"/></g></svg>
